icons/svg/application.svg

<?xml version="1.0" encoding="UTF-8"?>
<svg width="16px" height="16px" viewBox="0 0 16 16" version="1.1" xmlns="http://www.w3.org/2000/svg" xmlns:xlink="http://www.w3.org/1999/xlink">
    <!-- Generator: Sketch 57.1 (83088) - https://sketch.com -->
    <title>application</title>
    <desc>Created with Sketch.</desc>
    <g id="页面-1" stroke="none" stroke-width="1" fill="none" fill-rule="evenodd">
        <g id="消息通知_关注者" transform="translate(-400.000000, -162.000000)" fill="#B2B2B2" fill-rule="nonzero">
            <g id="application" transform="translate(400.000000, 162.000000)">
                <path d="M4.93131579,15.6926316 L2.37131579,15.6926316 C1.07447368,15.6926316 0.0134210526,14.6315789 0.0134210526,13.3347368 L0.0134210526,2.36210526 C0.0134210526,1.06526316 1.07447368,0.00421052632 2.37131579,0.00421052632 L13.3439474,0.00421052632 C14.6407895,0.00421052632 15.7018421,1.06526316 15.7018421,2.36210526 L15.7018421,4.91368421 C15.7018421,5.28421053 15.3986842,5.58736842 15.0281579,5.58736842 C14.6576316,5.58736842 14.3544737,5.28421053 14.3544737,4.91368421 L14.3544737,2.36210526 C14.3544737,1.80631579 13.8997368,1.35157895 13.3439474,1.35157895 L2.37131579,1.35157895 C1.81552632,1.35157895 1.36078947,1.80631579 1.36078947,2.36210526 L1.36078947,13.3347368 C1.36078947,13.8905263 1.81552632,14.3452632 2.37131579,14.3452632 L4.92289474,14.3452632 C5.29342105,14.3452632 5.59657895,14.6484211 5.59657895,15.0189474 C5.59657895,15.3894737 5.30184211,15.6926316 4.93131579,15.6926316 Z M7.56710526,15.5326316 C7.39868421,15.5326316 7.22184211,15.4652632 7.08710526,15.3389474 C6.82605263,15.0778947 6.82605263,14.6484211 7.08710526,14.3873684 L14.5144737,6.95157895 C14.7755263,6.69052632 15.205,6.69052632 15.4660526,6.95157895 C15.7271053,7.21263158 15.7271053,7.64210526 15.4660526,7.90315789 L8.03868421,15.3305263 C7.91236842,15.4652632 7.73552632,15.5326316 7.56710526,15.5326316 Z" id="形状"></path>
                <path d="M12.3081579,5.08210526 L3.41552632,5.08210526 C3.045,5.08210526 2.74184211,4.77894737 2.74184211,4.40842105 C2.74184211,4.03789474 3.045,3.73473684 3.41552632,3.73473684 L12.3165789,3.73473684 C12.6871053,3.73473684 12.9902632,4.03789474 12.9902632,4.40842105 C12.9902632,4.77894737 12.6871053,5.08210526 12.3081579,5.08210526 Z M8.60289474,9.65473684 L3.41552632,9.65473684 C3.045,9.65473684 2.74184211,9.35157895 2.74184211,8.98105263 C2.74184211,8.61052632 3.045,8.30736842 3.41552632,8.30736842 L8.61131579,8.30736842 C8.98184211,8.30736842 9.285,8.61052632 9.285,8.98105263 C9.285,9.35157895 8.98184211,9.65473684 8.60289474,9.65473684 Z" id="形状"></path>
            </g>
        </g>
    </g>
</svg>

<svg width="16" height="16" xmlns="http://www.w3.org/2000/svg"><g><path d="M4.931 15.693h-2.56a2.365 2.365 0 01-2.358-2.358V2.362A2.365 2.365 0 012.371.004h10.973a2.365 2.365 0 012.358 2.358v2.552c0 .37-.303.673-.674.673a.676.676 0 01-.674-.673V2.362c0-.556-.454-1.01-1.01-1.01H2.37c-.555 0-1.01.454-1.01 1.01v10.973c0 .556.455 1.01 1.01 1.01h2.552c.37 0 .674.303.674.674 0 .37-.295.674-.666.674zm2.636-.16a.712.712 0 01-.48-.194.676.676 0 010-.952l7.427-7.435a.676.676 0 01.952 0 .676.676 0 010 .951L8.04 15.331a.65.65 0 01-.472.202z"/><path d="M12.308 5.082H3.416a.676.676 0 01-.674-.674c0-.37.303-.673.674-.673h8.9c.371 0 .674.303.674.673 0 .37-.303.674-.682.674zM8.603 9.655H3.416a.676.676 0 01-.674-.674c0-.37.303-.674.674-.674H8.61c.37 0 .674.304.674.674 0 .37-.303.674-.682.674z"/></g></svg>
